src/img/icons/icon-plus.svg

<svg width="12" height="13" viewBox="0 0 12 13" fill="none" xmlns="http://www.w3.org/2000/svg">
<path fill-rule="evenodd" clip-rule="evenodd" d="M11.3436 5.27073H6.93738V0.872976C6.93738 0.511095 6.64441 0.208338 6.28243 0.208338H5.71859C5.35684 0.208338 5.06238 0.511095 5.06238 0.872976V5.27073H0.6564C0.29466 5.27073 8.4e-05 5.56366 8.4e-05 5.92556V6.49262C8.4e-05 6.85429 0.29454 7.14551 0.6564 7.14551H5.06261V11.5595C5.06261 11.9212 5.35684 12.2081 5.7187 12.2081H6.28255C6.64441 12.2081 6.93749 11.9212 6.93749 11.5595V7.14551H11.3429C11.7049 7.14551 11.9999 6.85429 11.9999 6.49262V5.92556C11.9999 5.56366 11.7049 5.27073 11.3429 5.27073" fill="#29282D"/>
</svg>

<svg width="12" height="13" fill="none" xmlns="http://www.w3.org/2000/svg"><path fill-rule="evenodd" clip-rule="evenodd" d="M11.344 5.27H6.937V.874a.663.663 0 00-.655-.665H5.72a.664.664 0 00-.657.665v4.398H.656A.656.656 0 000 5.926v.567c0 .361.295.653.656.653h4.407v4.413a.65.65 0 00.656.65h.564a.65.65 0 00.654-.65V7.146h4.406A.655.655 0 0012 6.493v-.567a.656.656 0 00-.657-.655" fill="#29282D"/></svg>
